images/house.svg

<svg width="13" height="13" viewBox="0 0 13 13" fill="none" xmlns="http://www.w3.org/2000/svg">
<path d="M6.5 0.5L0.5 6.30006V12.5001H12.5V6.30006L6.5 0.5ZM11.5 11.5001H1.5V6.70005L6.5 1.9L11.5 6.70005V11.5001Z" fill="white"/>
<path d="M4.5 10.5001H5.5V8.00005H7.5V10.5001H8.5V7.00005H4.5V10.5001Z" fill="white"/>
</svg>

<svg xmlns="http://www.w3.org/2000/svg" width="13" height="13" fill="none"><path fill="#fff" d="m6.5.5-6 5.8v6.2h12V6.3L6.5.5Zm5 11h-10V6.7l5-4.8 5 4.8v4.8Z"/><path fill="#fff" d="M4.5 10.5h1V8h2v2.5h1V7h-4v3.5Z"/></svg>
